X:1
T:Estote prudentes
T:Estote prudentes
T:Mathieu Le Maistre
C:Mathieu Le Maistre
%%score [ 1 2 3 4 ]
L:1/8
Q:1/4=120
M:4/4
K:F
V:1 treble nm="Soprano" snm="S"
V:2 treble nm="Alto" snm="A"
V:3 treble-8 nm="Tenor" snm="T"
V:4 bass nm="Bass" snm="B"
V:1
 z4 G4 | d4 c2 d2 | e4 d2 d2 | f4 e2 d2- | d2 c2 d3 c | BA B2 A2 G2- | G2 F2 GABc | %7
w: E-|sto- te pru-|den- tes sic-|ut ser- pen-|||* tes, sic- * * *|
 de f3 e/d/ c2- | c2 d2 B2 d2- | d2 f2 e2 d2- | cA c2 GABG | A4 z2 d2- | d2 f2 e2 d2- | %13
w: * * * * * ut|_ ser- pen- tes,|_ sic- ut ser-|* * * pen- * * *|tes, sic-|* ut ser- pen-|
 d2 c2 d2 z G | d4 c3 d | e2 d4 d2 | f2 e4 dc | d4 c2 d2 | e3 f g2 e2- | ed d4 c2 | d4 z2 d2 | %21
w: * * tes, e-|sto- te pru-|den- tes sic-|ut ser _ _|pen- * *|||tes, sic-|
 f2 e2 defd | e2 d4 c2 | d2 B2 c4 | A4 z4 | G2 d4 c2 | B2 d3 c B2 |"^#" A2 G4 F2 | G4 z4 | %29
w: ut ser- pen- * * *|||tes|et sim- pli-|ces sic- * *|ut co- lum-|bae,|
 c4 d3 c | B2 B2 c2 e2 | d3 c BAcB | AG G4 F2 | GABc de f2- | f2 ed e2 d2- | %35
w: et sim- pli-|ces sic- ut co-|lum- * * * * *||||
"^#""^-natural" d2 c2 d2 c2 | B2 G2 A4 | F4 G2 B2 | A2 G4 F2 | G8- | G8 | z2 F2 G2 B2 | A2 G4 F2 | %43
w: * * bae, et|sim- pli- ces|sic- ut co-|lum- * *|bae,|_|sic- ut co-|lum- * *|
 G4 z2 c2 | d3 c B2 B2 |"^b" c2 e2 d2 G2- |"^-natural" GFGA B4- | B8 |] %48
w: bae, e|sim- pli- ces sic-|ut co- lum- *|* * * * bae.|_|
V:2
 D4 G4 | F2 G2 A4 | G2 G2 B4 |"^-natural" AGAB c2 A2- |"^#" AG G4 F2 | G4 z4 | z8 | z4 C4 | %8
w: E- sto-|te pru- den-|tes sic- ut|ser- * * * * *|* * pen- *|tes,||E-|
 G4 F2 G2 | A4 G2 D2 | F4 E2 D2- | D2 C2 D2 D2 | F3 G A4 | G4 z2 D2 | F2 D2 F2 EF | G4 z2 D2 | %16
w: sto- te pru-|den- tes sic-|ut ser- pen-|* * tes, sic-|ut ser- pen-|tes, sic-|ut ser- pen- * *|tes, e-|
 A4 G3 A | B4 A2 A2- | A2 c2 B2 A2- | A2 G2 A4 | z4 G4 | A3 G F2 A2 | G2 F2 E4 | D2 G2 E2 E2 | %24
w: sto- te pru-|den- tes, sic-|* ut ser- pen-|* * tes,|et|sim- pli- ces sic-|ut co- lum-|bae, sic- ut co-|
 F4 D4 | z2 D2 E3 F | G2 D3 E F2- | F2 D2 z2 A2 | B3 A G2 B2 | A2 G2 F4 | G4 z2 G2 | F2 D2 G2 G2 | %32
w: lum- bae,|sic- ut _|_ co- * lum-|* bae, et|sim- pli- ces sic-|ut co- lum-|bae, et|sim- pli- ces sic-|
 FF, G,2 B,2 A,2 | G,2 G2 A3 G | F2 F2 G2 B2 | A8 | GFED E4 | D2 D2 E2 F2 | E2 C2 D4 | z2 C2 D3 C | %40
w: ut co- lum- * *|bae, et sim- pli-|ces sic- ut co-|lum-||bae, sic- ut co-|lum- * bae,|et sim- pli-|
"^b" B,2 B,2 C2 E2 | D8 | G,2 G,2 D3 C |"^b" B,2 B,2 C2 E2 | D4 G,4 |"^b" z2 G2 GFED |"^b" E4 D4- | %47
w: ces sic- ut co-|lum-|bae, et sim- pli-|ces sic- ut co-|lum- bae,|co- lum- * * *|* bae.|
 D8 |] %48
w: _|
V:3
 z8 | z8 | z4 G4 | d4 c2 d2 |"^b" e4 d4 | z2 G2 d4 |"^b" c2 d2 e4 | d2 d2 f4 | e2 d3 c B2 | %9
w: ||E-|sto- te pru-|den- tes,|e- sto-|te pru- den-|tes sic- ut|ser pen- * *|
 A4 B3 c | d2 cd ef g2- | g2 f2 g2 G2 | d4 c2 d2 |"^b" e4 d2 B2 | A2 B2 c2 A2 | B3 c d2 B2 | %16
w: ||* * tes, e-|sto- te pru-|den- tes- sic-|ut ser- pen- *||
 c3 d ef g2- | gG d2 f4- | e2 c2 dB c2 | d2 d2 f2 e2 | d4 c2 G2 | c3 B AGAB | c2 d2 A4 | z4 c4 | %24
w: * * * * tes,|_ e- sto- te|pru- * den- * *|tes sic- ut ser-|pen- * *||* * tes,|et|
 d2 c2 B2 d2 | c2 B2 A4 | G4 z2 B2 | F2 G2 c4 | d3 c B2 B2 | c2 e2 d4 | G4 z4 | d4 _e3 d | %32
w: sim- pli- ces sic-|ut co- lum-|bae, sic-|ut co- lum-|* * bae, sic-|ut co- lum-|bae,|et sim- pli-|
 c2 c2 d2 f2 | e4 d4- | d4 z4 | z2 G2 defd |"^#" e2 d4 c2 | d2 A2 c2 d2 | cBAG A4 | G4 z4 | %40
w: ces sic- ut co-|lum- bae,|_|et sim- * * *|* * pli-|ces sic- ut co-|lum- * * * *|bae,|
 d4 (3_e3 d c2 | A4 B2 d2 | cBAG A4 | G8 | z2 d2 _e2 d2 | c2 c2 d2 B2 |"^-natural" c4 B4- | B8 |] %48
w: et sim- pli- ces|sic- ut co-|lum- * * * *|bae,|et sim- pli-|ces sic- ut co-|lum- bae.|_|
V:4
"^#" z8 | z8 | z8 | z8 | z4 D,4 | G,4 F,2 G,2 | A,4 G,2 G,2 | B,4 A,G,A,B, | C2 B,3 A, G,2- | %9
w: ||||E-|sto- te pru-|den- tes sic-|ut ser- * * *|* pen- * *|
 G,2 F,2 G,4 | z2 A,2 C2 B,2 | A,4 G,3 F,/E,/ | D,4 z4 | z2 C,2 G,4 | F,2 G,2 A,4 | G,2 G,2 B,4 | %16
w: * * tes,|sic- ut ser-|pen- * * *|tes,|e- sto|te pru- den-|tes sic- ut|
 A,3 B, C4 | G,4 z2 D,2 | A,4 G,2 A,2 | B,4 A,4 | z2 G,2 C2 B,2 | A,4 D,4 | z8 | G,4 A,3 G, | %24
w: ser- * pen-|tes, e-|sto- te pru-|den- tes,|sic- ut ser-|pen- tes,||et- sim- pli-|
 F,2 A,2 G,2 F,2 |"^b" E,2 D,2 z2 C2 | D3 C B,2 D2 | C2 B,2 A,4 | G,8 | z4 D,4 | _E,3 D, C,2 C,2 | %31
w: ces sic- ut co-|lum- bae, et|sim- pli- ces sic-|ut co- lum-|bae|et|sim- pli- ces sic-|
 D,2 G,4 C,2 |"^b" F,2 E,2 D,4 | z8 | z4 G,4 | A,3 G, F,2 F,2 | G,2 B,2 A,4 |"^#" D,4 z2 B,,2 | %38
w: ut co- *|lum- * bae,||et|sim- pli- ces sic-|ut co- lum-|bae, sic-|
"^b" C,2 E,2 D,4 | B,,2 C,2 G,4- | G,4 z2 C,2 | D,3 C, B,,2 B,,2 |"^b" C,2 E,2 D,4 | %43
w: ut co- lum-|* * bae,|_ et|sim- pli- ces sic-|ut co- lum-|
 G,3 F, _E,2 C,2 | G,4 z2 G,2 | C,4 G,4 | C,4 G,4- | G,8 |] %48
w: |bae, sic-|ut co-|lum- bae.|_|

